X:1
T:Christ Is All
T:Christ Is All
T:William Asbury Williams
T:William Asbury Williams, 1873
T:Public Domain Courtesy of the Cyber Hymnal™
T:Public Domain Courtesy of the Cyber Hymnal™
C:William Asbury Williams
Z:Public Domain
Z:Courtesy of the Cyber Hymnal™
%%score ( 1 2 ) ( 3 4 )
L:1/8
Q:1/4=95
M:3/4
K:Eb
V:1 treble 
V:2 treble 
V:3 bass 
V:4 bass 
V:1
 E[EG]>[EG] | [EG]3 [DF] E>E | E3 [EG] [EB]>[EB] | [EB]3 [EB] [Ec]>[Ec] | [EB]4 (E>F) | %5
w: 1.~I en- tered|once a home of|care, For age and|pen- u- ry were|there, Yet *|
w: 2.~I stood be-|side a dy- ing|bed, Where lay a|child with ach- ing|head, Wai- *|
w: 3.~I saw a|mar- tyr at the|stake, The flames could|not his cour- age|shake, Nor *|
w: 4.~Then come to|Christ, O come to-|day, The Fa- ther,|Son, and Spir- it|say, The *|
w: 5.~I dreamed that|hoar- y Time had|fled, And earth and|sea gave up their|dead, A *|
w: 6.~“Then come to|Christ, oh! come to-|day,” The Fa- ther,|Son and Spir- it|say; The *|
 [EG]3 E [DF]>E | E3 [GB] [Ge]>[Ge] | [Ge]3 [GB] [Ac]>[Ac] | [GB]3 [GB] [GB]>[GB] | %9
w: peace and joy with-|al; I asked the|lone- ly mo- ther|whence Her help- less|
w: ting for Je- sus’|call; I marked his|smile, ’twas sweet as|May; And as his|
w: death his soul ap-|pall; I asked him|whence his strength was|giv’n; He looked tri-|
w: Bride re- peats the|call; For He will|cleanse your guilt- y|stains, His love will|
w: fire dis- solved this|ball; I saw the|Church- ’s ran- somed|throng, I heard the|
w: Bride re- peats the|call; For He will|cleanse your guilt- y|stains, His love will|
 [Ac]3 [GB] [EG]>E | [DF]4 (E>F) | [EG]3 E [DF]>E | E4 ||"^Refrain" [Ee]>[Ec] | e4 [ce]>[Ac] | %15
w: wi- dow- hood’s de-|fense; She *|told me, “Christ is|all.”|||
w: spir- it passed a-|way, He *|whis- pered, “Christ is|all.”|||
w: umph- ant- ly to|Heav’n, And *|an- swered, “Christ is|all.”|||
w: soothe your wear- y|pains, For *|“Christ is all in|all.”|Christ is|all, all in|
w: bur- den of their|song, ’Twas *|“Christ is all in|all.”|||
w: soothe your wear- y|pains; For *|“Christ is all in|all.”|||
 [GB]4 ([Ac]>[GB]) | [EG]3 E [DF]>[DF] | ([EG] [GB]2) z [Ee]>[Ec] | e4 [ce]>[Ac] | %19
w: ||||
w: ||||
w: ||||
w: all, Yes, *|Christ is all in|all; * Christ is|all, all in|
w: ||||
w: ||||
 [GB]4 ([Ac]>[GB]) | [EG]3 E [DF]>[B,E] | [B,E]3 |] %22
w: |||
w: |||
w: |||
w: all, Yes, *|Christ is all in|all;|
w: |||
w: |||
V:2
 E x2 | x4 E>E | E3 x3 | x6 | x4 E2 | x3 E x/ E/ x | E3 x3 | x6 | x6 | x11/2 E/ | x4 E2 | %11
 x3 E x/ E/ x | E4 || x2 | (E2 A2) x2 | x6 | x3 E x2 | x6 | (E2 A2) x2 | x6 | x3 E x2 | x3 |] %22
V:3
 [E,G,][E,B,]>[E,B,] | [E,B,]3 [B,,A,] [E,G,]>[E,G,] | [E,G,]3 [E,B,] [E,G,]>[E,G,] | %3
 [E,G,]3 [E,G,] [A,,A,]>[A,,A,] | [E,G,]4 (G,>A,) | [B,,B,]3 [B,,G,] [B,,A,]>[E,G,] | %6
 [E,G,]3 [E,B,] [E,B,]>[E,B,] | [E,B,]3 [E,E] [E,E]>[E,E] | [E,E]3 [E,E] [E,E]>[E,E] | %9
 [E,E]3 [E,E] [E,B,]>[E,G,] | [B,,B,]4 (G,>=A,) | [B,,B,]3 [B,,G,] [B,,A,]>[E,G,] | [E,G,]4 || %13
 [A,,C]>[A,,A,] | [A,,C]4 [A,E]>[A,E] | [E,E]4 [E,E]2 | [E,B,]3 [E,G,] [B,,B,]>[B,,B,] | %17
 (B, E2) z [A,,C]>[A,,A,] | [A,,C]4 [A,E]>[A,E] | [E,E]4 [E,E]2 | [E,B,]3 [B,,G,] [B,,A,]>[E,G,] | %21
 [E,G,]3 |] %22
V:4
 x3 | x6 | x6 | x6 | x4 E,2 | x6 | x6 | x6 | x6 | x6 | x4 C,2 | x6 | x4 || x2 | x6 | x6 | x6 | %17
 E,3 x3 | x6 | x6 | x6 | x3 |] %22

